X: 30308
T: Old Man Napier
R: reel
M: 4/4
K: Dmajor
|:eccA ecA^G|AAA=F ^GBBB|c2 BA ce^gc|ecAc c=F^GB|
A2 Ac ecA^G|AAA=F ^GBBB|c2 BA ce^gc|1 ecAc =F^G A2:|2 ecAc =F^GAc|
|:eA A/A/A eAaA|A/A/A eA aA^gA|=fA A/A/A fA A/A/A|=fAfA A/A/A ^gA|
^fA A/A/A BAdA|A/A/A fA aA^gA|eA A/A/A eAcA|cAA^G cGEG:|

